proprietary/assets/icons/symbolen-en-abstract/boos.svg

<svg enable-background="new 0 0 64 64" viewBox="0 0 64 64" xmlns="http://www.w3.org/2000/svg"><path d="m0 0h64v64h-64z" fill="none"/><path d="m32 8c-13.255 0-24 10.745-24 24s10.745 24 24 24 24-10.745 24-24-10.745-24-24-24zm-12.527 21.392c0-1.105.425-2.102 1.104-2.869l7.193 4.674c-.687 1.499-2.191 2.545-3.948 2.545-2.402-.001-4.349-1.948-4.349-4.35zm18.586 16.472c-1.185-.348-3.392-.864-6.059-.864s-4.874.516-6.059.864c-.406.119-.766-.289-.595-.677.66-1.501 2.431-4.187 6.654-4.187s5.994 2.686 6.655 4.188c.17.387-.189.796-.596.676zm2.119-12.123c-1.757 0-3.261-1.047-3.948-2.545l7.193-4.674c.679.767 1.104 1.764 1.104 2.869 0 2.403-1.947 4.35-4.349 4.35z"/></svg>

<?xml version="1.0" encoding="utf-8"?>
<!-- Generator: Adobe Illustrator 25.2.0, SVG Export Plug-In . SVG Version: 6.00 Build 0)  -->
<svg version="1.1" xmlns="http://www.w3.org/2000/svg" xmlns:xlink="http://www.w3.org/1999/xlink" x="0px" y="0px"
	 viewBox="0 0 64 64" style="enable-background:new 0 0 64 64;" xml:space="preserve">
<style type="text/css">
	.st0{fill:none;}
	.st1{fill:#B3B3B3;}
</style>
<g id="Label">
</g>
<g id="Box">
	<rect class="st0" width="64" height="64"/>
</g>
<g id="Icon">
	<path d="M32,8C18.745,8,8,18.745,8,32c0,13.255,10.745,24,24,24s24-10.745,24-24C56,18.745,45.255,8,32,8z M19.473,29.392
		c0-1.105,0.425-2.102,1.104-2.869l7.193,4.674c-0.687,1.499-2.191,2.545-3.948,2.545C21.42,33.741,19.473,31.794,19.473,29.392z
		 M38.059,45.864C36.874,45.516,34.667,45,32,45s-4.874,0.516-6.059,0.864c-0.406,0.119-0.766-0.289-0.595-0.677
		C26.006,43.686,27.777,41,32,41s5.994,2.686,6.655,4.188C38.825,45.575,38.466,45.984,38.059,45.864z M40.178,33.741
		c-1.757,0-3.261-1.047-3.948-2.545l7.193-4.674c0.679,0.767,1.104,1.764,1.104,2.869C44.527,31.794,42.58,33.741,40.178,33.741z"/>
</g>
</svg>
